dist/assets/images/card/icon-7.svg

<svg width="125" height="87" viewBox="0 0 125 87" fill="none" xmlns="http://www.w3.org/2000/svg">
<path d="M123.813 1H1V85.586H123.813V1Z" stroke="#DE1F26" stroke-miterlimit="10"/>
<path fill-rule="evenodd" clip-rule="evenodd" d="M73.6361 54.766C72.9181 54.702 72.3331 54.961 71.8771 55.418C71.4221 55.873 71.2271 56.459 71.2271 57.176C71.2271 57.826 71.4221 58.348 71.8771 58.803C72.3331 59.258 72.9181 59.52 73.6361 59.584C74.3521 59.52 74.8711 59.258 75.3281 58.803C75.7841 58.348 76.0441 57.826 76.0441 57.176C76.0441 56.459 75.7841 55.873 75.3281 55.418C74.8721 54.962 74.3521 54.702 73.6361 54.766Z" fill="white"/>
<path fill-rule="evenodd" clip-rule="evenodd" d="M74.498 63.6731C74.498 65.8881 75.279 67.7751 76.907 69.4031C77.298 69.7271 77.687 70.0531 78.144 70.3801C79.445 71.2901 80.944 71.7451 82.637 71.8121C84.329 71.7461 85.825 71.2911 87.194 70.3801C87.584 70.0541 87.974 69.7281 88.365 69.4031C89.992 67.7741 90.773 65.8871 90.773 63.6731C90.773 61.3961 89.992 59.5051 88.365 57.9441C86.738 56.3171 84.849 55.5361 82.637 55.5361C80.422 55.5361 78.534 56.3171 76.908 57.9441C75.279 59.5051 74.498 61.3961 74.498 63.6731ZM80.878 61.9821C81.334 61.5251 81.919 61.2651 82.636 61.3301C83.352 61.2661 83.872 61.5251 84.328 61.9821C84.782 62.4371 85.044 63.0231 85.044 63.7401C85.044 64.3901 84.782 64.9121 84.328 65.3671C83.871 65.8221 83.351 66.0841 82.636 66.1481C81.919 66.0841 81.334 65.8221 80.878 65.3671C80.421 64.9121 80.227 64.3901 80.227 63.7401C80.228 63.0231 80.421 62.4371 80.878 61.9821Z" fill="white"/>
<path fill-rule="evenodd" clip-rule="evenodd" d="M82.6361 61.329C81.9181 61.265 81.3331 61.524 80.8771 61.981C80.4221 62.436 80.2271 63.022 80.2271 63.739C80.2271 64.389 80.4221 64.911 80.8771 65.366C81.3331 65.821 81.9181 66.083 82.6361 66.147C83.3521 66.083 83.8711 65.821 84.3281 65.366C84.7841 64.911 85.0441 64.389 85.0441 63.739C85.0441 63.022 84.7841 62.436 84.3281 61.981C83.8721 61.525 83.3521 61.265 82.6361 61.329Z" fill="white"/>
<path d="M32 53.4619L82.034 53.4409M32 74.2079H81.915H32Z" stroke="#0000BD"/>
<path d="M82.325 61.165C83.798 61.165 84.992 62.36 84.992 63.833C84.992 65.306 83.798 66.499 82.325 66.499C80.852 66.499 79.658 65.306 79.658 63.833C79.658 62.36 80.852 61.165 82.325 61.165ZM82.325 53.437C88.067 53.437 92.721 58.091 92.721 63.833C92.721 69.575 88.066 74.229 82.325 74.229C76.584 74.229 71.929 69.575 71.929 63.833C71.929 58.091 76.583 53.437 82.325 53.437Z" stroke="#0000BD" stroke-miterlimit="22.9256"/>
<path d="M68.879 40L69.722 41.074H68.052L68.879 40ZM68.901 50.515L69.819 49.271H68L68.901 50.515Z" stroke="#DF0112" stroke-width="0.4799" stroke-miterlimit="10"/>
<path d="M68.896 41.073L68.877 49.345" stroke="#DF0112" stroke-width="0.4799"/>
<path d="M76.0679 49.571L77.4639 42.821H79.0859L80.4799 49.571H79.3889L79.0949 48.0421H77.4559L77.1569 49.571H76.0679ZM77.6449 47.054H78.9059L78.2729 43.802L77.6449 47.054Z" fill="#0000BD"/>
<rect x="32.5" y="13.5" width="52.2379" height="20.0476" fill="#DF0112" stroke="#0000BD"/>
<path d="M34.991 36.5238V38.5H32.5V36.5238V33.3096H84.7379V36.5238V38.5H82.2469V36.5238V36.0238H81.7469H61.2372H60.7372V36.5238V38.5H58.4999V36.5238V36.0238H57.9999H35.491H34.991V36.5238Z" fill="white" stroke="#0000BD"/>
</svg>

<svg width="125" height="87" fill="none" xmlns="http://www.w3.org/2000/svg"><path d="M123.813 1H1v84.586h122.813V1z" stroke="#DE1F26" stroke-miterlimit="10"/><path fill-rule="evenodd" clip-rule="evenodd" d="M73.636 54.766c-.718-.064-1.303.195-1.759.652-.455.455-.65 1.041-.65 1.758 0 .65.195 1.172.65 1.627.456.455 1.041.717 1.76.781.715-.064 1.234-.326 1.691-.781.456-.455.716-.977.716-1.627 0-.717-.26-1.303-.716-1.758-.456-.456-.976-.716-1.692-.652zm.862 8.907c0 2.215.781 4.102 2.409 5.73.391.324.78.65 1.237.977 1.301.91 2.8 1.365 4.493 1.432 1.692-.066 3.188-.52 4.557-1.432l1.171-.977c1.627-1.629 2.408-3.516 2.408-5.73 0-2.277-.781-4.168-2.408-5.729-1.627-1.627-3.516-2.408-5.728-2.408-2.215 0-4.103.781-5.729 2.408-1.629 1.561-2.41 3.452-2.41 5.73zm6.38-1.69c.456-.458 1.041-.718 1.758-.653.716-.064 1.236.195 1.692.652.454.455.716 1.041.716 1.758 0 .65-.262 1.172-.716 1.627-.457.455-.977.717-1.692.781-.717-.064-1.302-.326-1.758-.78-.457-.456-.651-.978-.651-1.628.001-.717.194-1.303.651-1.758z" fill="#fff"/><path fill-rule="evenodd" clip-rule="evenodd" d="M82.636 61.329c-.718-.064-1.303.195-1.759.652-.455.455-.65 1.041-.65 1.758 0 .65.195 1.172.65 1.627.456.455 1.041.717 1.76.781.715-.064 1.234-.326 1.691-.781.456-.455.716-.977.716-1.627 0-.717-.26-1.303-.716-1.758-.456-.456-.976-.716-1.692-.652z" fill="#fff"/><path d="M32 53.462l50.034-.021M32 74.208h49.915H32z" stroke="#0000BD"/><path d="M82.325 61.165a2.668 2.668 0 11-.002 5.336 2.668 2.668 0 01.002-5.336zm0-7.728c5.742 0 10.396 4.654 10.396 10.396 0 5.742-4.655 10.396-10.396 10.396-5.741 0-10.396-4.654-10.396-10.396 0-5.742 4.654-10.396 10.396-10.396z" stroke="#0000BD" stroke-miterlimit="22.926"/><path d="M68.879 40l.843 1.074h-1.67L68.879 40zm.022 10.515l.918-1.244H68l.901 1.244z" stroke="#DF0112" stroke-width=".48" stroke-miterlimit="10"/><path d="M68.896 41.073l-.019 8.272" stroke="#DF0112" stroke-width=".48"/><path d="M76.068 49.571l1.396-6.75h1.622l1.394 6.75h-1.091l-.294-1.529h-1.64l-.298 1.529h-1.09zm1.577-2.517h1.26l-.632-3.252-.628 3.252z" fill="#0000BD"/><path fill="#DF0112" stroke="#0000BD" d="M32.5 13.5h52.238v20.048H32.5z"/><path d="M34.991 36.524V38.5H32.5v-5.19h52.238v5.19h-2.491v-2.476h-21.51V38.5H58.5v-2.476H34.99v.5z" fill="#fff" stroke="#0000BD"/></svg>
